assets/img/home/quotation.svg

<svg fill="none" height="66" viewBox="0 0 86 66" width="86" xmlns="http://www.w3.org/2000/svg"><path d="m21.7986 0h18.5999l-15.4 33c7.2 2.6667 10.8 7.8667 10.8 15.6 0 5.0667-1.7333 9.2667-5.1999 12.6-3.3334 3.2-7.5334 4.8-12.6001 4.8-4.5333 0-8.66662-1.4-12.39995-4.2-3.6-2.9333-5.400001-7.7333-5.400001-14.4-.2666671-6.4 6.933331-22.2 21.600051-47.4zm49 33c7.0666 2.6667 10.6 7.8667 10.6 15.6 0 5.2-1.6667 9.4-5 12.6-3.3334 3.2-7.5334 4.8-12.6001 4.8-4.6666 0-8.8666-1.4-12.5999-4.2-3.6001-2.9333-5.4001-7.7333-5.4001-14.4s7.2001-22.4667 21.6001-47.4h18.6z" fill="#fff" opacity=".15"/></svg>

<svg width="86" height="66" viewBox="0 0 86 66" fill="none" xmlns="http://www.w3.org/2000/svg">
<path opacity="0.15" d="M21.7986 0H40.3985L24.9985 33C32.1985 35.6667 35.7985 40.8667 35.7985 48.6C35.7985 53.6667 34.0652 57.8667 30.5986 61.2C27.2652 64.4 23.0652 66 17.9985 66C13.4652 66 9.33188 64.6 5.59855 61.8C1.99855 58.8667 0.198549 54.0667 0.198549 47.4C-0.0681181 41 7.13188 25.2 21.7986 0ZM70.7986 33C77.8652 35.6667 81.3986 40.8667 81.3986 48.6C81.3986 53.8 79.7319 58 76.3986 61.2C73.0652 64.4 68.8652 66 63.7985 66C59.1319 66 54.9319 64.6 51.1986 61.8C47.5985 58.8667 45.7985 54.0667 45.7985 47.4C45.7985 40.7333 52.9986 24.9333 67.3986 0H85.9986L70.7986 33Z" fill="white"/>
</svg>
